build/svg/cmd/sc_changedatabasefield.svg

<?xml version="1.0" encoding="UTF-8" standalone="no"?>
<svg
   xmlns:dc="http://purl.org/dc/elements/1.1/"
   xmlns:cc="http://creativecommons.org/ns#"
   xmlns:rdf="http://www.w3.org/1999/02/22-rdf-syntax-ns#"
   xmlns:svg="http://www.w3.org/2000/svg"
   xmlns="http://www.w3.org/2000/svg"
   xmlns:sodipodi="http://sodipodi.sourceforge.net/DTD/sodipodi-0.dtd"
   xmlns:inkscape="http://www.inkscape.org/namespaces/inkscape"
   viewBox="0 0 16 16"
   version="1.1"
   id="svg4"
   sodipodi:docname="sc_changedatabasefield.svg"
   inkscape:version="0.92.5 (2060ec1f9f, 2020-04-08)"
   inkscape:export-filename="/home/jupiter007/Libreoffice yaru theme fullcolor/build/cmd/sc_changedatabasefield.png"
   inkscape:export-xdpi="96"
   inkscape:export-ydpi="96"><metadata
   id="metadata10">
  <rdf:RDF>
    <cc:Work
       rdf:about="">
      <dc:format>image/svg+xml</dc:format>
      <dc:type
         rdf:resource="http://purl.org/dc/dcmitype/StillImage" />
    </cc:Work>
  </rdf:RDF>
</metadata>
<defs
   id="defs8" />
<sodipodi:namedview
   pagecolor="#ffffff"
   bordercolor="#666666"
   borderopacity="1"
   objecttolerance="10"
   gridtolerance="10"
   guidetolerance="10"
   inkscape:pageopacity="0"
   inkscape:pageshadow="2"
   inkscape:window-width="1920"
   inkscape:window-height="1011"
   id="namedview6"
   showgrid="true"
   inkscape:zoom="29.5"
   inkscape:cx="3.6182943"
   inkscape:cy="4.1263702"
   inkscape:window-x="0"
   inkscape:window-y="32"
   inkscape:window-maximized="1"
   inkscape:current-layer="svg4">
  <inkscape:grid
     type="xygrid"
     id="grid837" />
</sodipodi:namedview>
/&gt;<path
   style="fill:#f2cbf8;fill-opacity:1;stroke-width:0.91666681"
   id="path817"
   d="M 7.999999,2.5 C 4.962434,2.5 2.5,3.3208113 2.5,4.333333 v 7.333333 C 2.5,12.679188 4.962434,13.5 7.999999,13.5 11.037565,13.5 13.5,12.679188 13.5,11.666666 V 4.333333 C 13.5,3.3208113 11.037565,2.5 7.999999,2.5 Z"
   inkscape:connector-curvature="0"
   sodipodi:nodetypes="sssssss" />
<path
   inkscape:connector-curvature="0"
   d="M 7.999999,2 A 6,2 0 0 0 2,4 v 8 A 6,2 0 0 0 7.999999,14 6,2 0 0 0 14,12 V 4 A 6,2 0 0 0 7.999999,2 Z m 0,1 A 5,1 0 0 1 13,4 5,1 0 0 1 7.999999,5 5,1 0 0 1 3,4 5,1 0 0 1 7.999999,3 Z M 3,5.101563 A 6,2 0 0 0 7.999999,6 6,2 0 0 0 13,5.103516 V 8 A 5,1 0 0 1 7.999999,9 5,1 0 0 1 3,8 Z m 0,4 A 6,2 0 0 0 7.999999,10 6,2 0 0 0 13,9.103516 V 12 A 5,1 0 0 1 7.999999,13 5,1 0 0 1 3,12 Z"
   id="path2-5"
   style="fill:#8e03a3;fill-opacity:1" />
<path
   style="opacity:0.6;fill:#000000;fill-opacity:1;stroke:#000000;stroke-width:2;stroke-linecap:butt;stroke-linejoin:round;stroke-miterlimit:4;stroke-dasharray:none;stroke-opacity:1"
   d="M 12 7 L 8 10 L 12 13 L 12 11 L 15 11 L 15 9 L 12 9 L 12 7 z M 4 9 L 4 11 L 1 11 L 1 13 L 4 13 L 4 15 L 8 12 L 4 9 z "
   id="path856" />
<path
   inkscape:connector-curvature="0"
   style="fill:#aee3f8;fill-opacity:1;stroke:none;stroke-width:1px;stroke-linecap:butt;stroke-linejoin:miter;stroke-opacity:1"
   d="m 8,12.0001 -4,3 v -2 L 1,13 v -2 l 3,10e-5 v -2 z"
   id="path834-1"
   sodipodi:nodetypes="cccccccc" />
<path
   sodipodi:nodetypes="cccccccc"
   id="path841"
   d="m 8,10 4,-3 v 2 l 3,10e-5 v 2 L 12,11 v 2 z"
   style="fill:#aee3f8;fill-opacity:1;stroke:none;stroke-width:1px;stroke-linecap:butt;stroke-linejoin:miter;stroke-opacity:1"
   inkscape:connector-curvature="0" />
</svg>

<svg xmlns="http://www.w3.org/2000/svg" viewBox="0 0 16 16">/&gt;<path d="M8 2.5c-3.038 0-5.5.82-5.5 1.833v7.334C2.5 12.679 4.962 13.5 8 13.5s5.5-.82 5.5-1.833V4.333C13.5 3.321 11.038 2.5 8 2.5z" fill="#f2cbf8"/><path d="M8 2a6 2 0 00-6 2v8a6 2 0 006 2 6 2 0 006-2V4a6 2 0 00-6-2zm0 1a5 1 0 015 1 5 1 0 01-5 1 5 1 0 01-5-1 5 1 0 015-1zM3 5.102A6 2 0 008 6a6 2 0 005-.896V8a5 1 0 01-5 1 5 1 0 01-5-1zm0 4A6 2 0 008 10a6 2 0 005-.896V12a5 1 0 01-5 1 5 1 0 01-5-1z" fill="#8e03a3"/><path d="M12 7l-4 3 4 3v-2h3V9h-3V7zM4 9v2H1v2h3v2l4-3-4-3z" opacity=".6" stroke="#000" stroke-width="2" stroke-linejoin="round"/><path d="M8 12l-4 3v-2H1v-2h3V9zM8 10l4-3v2h3v2h-3v2z" fill="#aee3f8"/></svg>
